packages/core/src/svgs/kex.svg

<svg width="24" height="24" viewBox="0 0 24 24" fill="none" xmlns="http://www.w3.org/2000/svg">
<g clip-path="url(#clip0_31_12512)">
<path d="M0 0H24V24H0V0Z" fill="url(#paint0_linear_31_12512)"/>
<path opacity="0.6" d="M6.17153 9.77129C5.90582 9.917 5.57153 9.89129 5.57153 9.58272V8.30986L10.3887 5.57129V6.84415C10.3887 7.15272 10.1744 7.52986 9.89153 7.67557L6.17153 9.77557V9.77129Z" fill="#298DFF"/>
<path opacity="0.6" d="M13.1143 18.6517C13.38 18.5017 13.38 18.2402 13.1143 18.0945L9.27855 15.9088C9.12594 15.8361 8.95903 15.7983 8.78998 15.7983C8.62093 15.7983 8.45401 15.8361 8.30141 15.9088L7.19141 16.5474L12.0085 19.2859L13.1185 18.6517H13.1143Z" fill="#344AE6"/>
<path opacity="0.6" d="M17.2286 7.67134C16.9544 7.52992 16.7144 7.64134 16.7144 7.9542V12.3256C16.7144 12.6342 16.9372 13.0113 17.2286 13.1528L18.3858 13.7913V8.30992L17.2286 7.67563V7.67134Z" fill="#4264F2"/>
<path d="M5.57153 8.31415L10.3887 5.57129L14.7215 8.03557C14.9872 8.18129 14.9872 8.44272 14.7215 8.58843L10.8815 10.7741C10.6201 10.9199 10.1701 10.9199 9.90868 10.7741L5.57153 8.30986V8.31415Z" fill="#298DFF"/>
<path d="M6.85718 11.4858C6.85718 11.1729 7.08432 11.0572 7.38432 11.2072L11.4729 13.4315C11.6217 13.519 11.7473 13.6409 11.839 13.7871C11.9308 13.9333 11.986 14.0995 12 14.2715V19.2858L6.85718 16.5001V11.4858Z" fill="#344AE6"/>
<path d="M14.1986 16.2515C13.9415 16.4015 13.7144 16.2858 13.7144 15.9772V11.6058C13.7144 11.2972 13.9244 10.9201 14.1986 10.7743L18.4286 8.31006V13.7915L14.1986 16.2515Z" fill="#4264F2"/>
</g>
<defs>
<linearGradient id="paint0_linear_31_12512" x1="4.46571" y1="4.16143" x2="29.2071" y2="32.58" gradientUnits="userSpaceOnUse">
<stop stop-color="#1A1E21"/>
<stop offset="1" stop-color="#06060A"/>
</linearGradient>
<clipPath id="clip0_31_12512">
<rect width="24" height="24" fill="white"/>
</clipPath>
</defs>
</svg>

<svg xmlns="http://www.w3.org/2000/svg" width="24" height="24" fill="none" viewBox="0 0 24 24"><g clip-path="url(#a)"><path fill="url(#b)" d="M0 0h24v24H0z"/><path fill="#298DFF" d="M6.172 9.771c-.266.146-.6.12-.6-.188V8.31l4.817-2.739v1.273c0 .309-.215.686-.497.832l-3.72 2.1z" opacity=".6"/><path fill="#344AE6" d="M13.114 18.652c.266-.15.266-.412 0-.558L9.28 15.91a1.14 1.14 0 0 0-.978 0l-1.11.638 4.818 2.739 1.11-.634z" opacity=".6"/><path fill="#4264F2" d="M17.229 7.671c-.275-.141-.515-.03-.515.283v4.372c0 .308.223.685.515.827l1.157.638V8.31l-1.157-.634z" opacity=".6"/><path fill="#298DFF" d="m5.572 8.314 4.817-2.743 4.333 2.465c.265.145.265.407 0 .552l-3.84 2.186c-.262.146-.712.146-.973 0L5.572 8.31z"/><path fill="#344AE6" d="M6.857 11.486c0-.313.227-.429.527-.279l4.089 2.224a1.08 1.08 0 0 1 .527.84v5.015L6.857 16.5z"/><path fill="#4264F2" d="M14.199 16.252c-.258.15-.485.034-.485-.275v-4.371c0-.309.21-.686.485-.832l4.23-2.464v5.481z"/></g><defs><linearGradient id="b" x1="4.466" x2="29.207" y1="4.161" y2="32.58" gradientUnits="userSpaceOnUse"><stop stop-color="#1A1E21"/><stop offset="1" stop-color="#06060A"/></linearGradient><clipPath id="a"><path fill="#fff" d="M0 0h24v24H0z"/></clipPath></defs></svg>
